X:2
T:Resting Chair,  (Part two) The 
C:Trad
M:C
K:G
|:z8|z8|z8|z8|
d4 c4 | B2G2 =F4 | C2B,C A,2 DC | B,3 z2 :|
z4 cBAG | EDEF GABG | E4G2D2 | ^C4 D4 |
z4 cBAG | EDEFGABG | E2 DE D2C2| B,6 z2 |
z4 cBAG | EDEF BABG| c4 g2d2 | ^c4 d2 d=c | 
d4c4 | B2G2 =F4 | C2A,4C2 | B,8||
